X: 382
T: the Merry Scot
S: MS of Walter Rainstorp 1747++ 
S: https://brbl-dl.library.yale.edu/vufind/Record/3444369
F: https://brbl-dl.library.yale.edu/pdfgen/exportPDF.php?bibid=2057949&solrid=3444369
%R: march
Z: 2019 John Chambers <jc:trillian.mit.edu>
M: C|
L: 1/8
K: Dmix
|:\
D4 F2ED | A2 d4 B2 | A2 E4 F2 | GA B4 c2 |\
d2B2 A2F2 | G2E2 g4 | B2G2 F2E2 | D2 d6 :|
|:\
f4 a2gf | e2 A4- A2 | B4 d2cB | A2 F4 F2 |\
G2A2 B2c2 | d2B2 g4 | B2G2 F2E2 | D2 d6 :|
